X:1
T:Title
%%score 1 { 2 | 3 }
L:1/8
Q:1/4=110
M:4/4
K:A
V:1 treble nm="Grand Piano, Unnamed-000"
V:2 bass nm="Choir Pad, Kelveden"
V:3 bass 
V:1
 [CE]2 [EA]2 [DA]2 [DG]2 | [DF]2 [DG]2 [DF]2 [DE]2 | [DE]2 [Ed]2 [Ad]2 [Ac]2 | %3
w: By~William~Blow,~Jr.,~1867 * * *|||
 [Fc]2 [FB]2 [EB]2 E2 | E2 [CE]2 [DA]2 [EA]2 | [FB]2 [Ec]2 [Fe]2 [Fd]2 | [Ac]2 [EA]2 [Ad]2 [Ac]2 | %7
w: ||||
 [Gc]2 [GB]2 A4 | [Ec]2 [^Ec]2 [Fc]2 [=EF]2 | [Dd]2 [Ec]2 [FB]2 F2 | [EA]4 [EG]4 | [EA]8 |] %12
w: |||||
V:2
 A,2 C2 B,2 B,2 | A,2 B,2 A,2 G,2 | A,2 B,2[K:treble] E2 E2 | ^D2 D2 =D4 | C2[K:bass] A,2 A,2 C2 | %5
 D2 ^A,2 A,2 B,2 | C2 C2 F2 E2 | E2 D2 C4 | C2[K:bass] B,2 A,2 ^A,2 | B,2 ^A,2[K:treble] B,2 =C2 | %10
 C4 B,4 | C8 |] %12
V:3
 z2 A,2 E,2 E,2 | E,2 E,2 E,2 E,2 | F,2 G,2 A,2 A,2 | A,2 A,2 G,4 | A,2 G,2 F,2 E,2 | %5
 D,2 C,2 B,,2 B,,2 | E,2 E,2 E,2 E,2 | E,2 E,2 A,4 | A,2 G,2 F,2 F,2 | B,,2 C,2 D,2 ^D,2 | %10
 E,2 E,2 E,2 E,2 | A,,8 |] %12

